X: 11492
Q: "Boldly and spiritedly."
M: 3/4
L: 1/8
K: D
|:\
|:\
(f3 d)(af) | fe e4 | (d3 f)(ed) | (dc) c4 |\
(B3 c)(dB) | (A2 g2) f2 | (e2 d2) c2 | d4 z2 :|


